app/img/contact/ic_job_1.svg

<svg width="24" height="21" viewBox="0 0 24 21" fill="none" xmlns="http://www.w3.org/2000/svg">
    <path d="M22.9886 5.26222C22.9886 4.6314 22.4595 4.11827 21.8089 4.11827H15.6619V2.57983C15.6619 1.70876 14.931 1 14.0327 1H9.96776C9.06946 1 8.33855 1.70876 8.33855 2.57983V4.11827H2.19203C1.54125 4.11827 1.01185 4.63117 1.01185 5.26107L1 10.7027C0.999763 10.8792 1.1036 11.0404 1.26719 11.1174C1.51754 11.2351 1.77525 11.3438 2.03414 11.4516V18.8561C2.03414 19.4866 2.5633 20 3.21385 20H20.7862C21.4367 20 21.9659 19.4869 21.9659 18.8561V11.3408C22.2312 11.222 22.4924 11.099 22.747 10.9689C22.903 10.8891 23.0005 10.7321 23 10.5613L22.9886 5.26222ZM9.28687 2.57983C9.28687 2.21568 9.59246 1.91957 9.96776 1.91957H14.0327C14.4018 1.91957 14.7136 2.22188 14.7136 2.57983V4.11827H9.28687V2.57983ZM21.0178 18.8561C21.0178 18.9756 20.9097 19.0804 20.7864 19.0804H3.21408C3.08867 19.0804 2.98269 18.9777 2.98269 18.8561V11.8165C5.0467 12.5515 7.35277 12.9924 9.86747 13.1276V13.7655C9.86747 14.2281 10.2556 14.6044 10.7326 14.6044H13.2681C13.7449 14.6044 14.1328 14.2278 14.1328 13.7655V13.1207C16.6802 12.9706 18.9867 12.5048 21.0175 11.7323V18.8561H21.0178ZM10.8158 13.6848V12.1593H13.1847V13.6848H10.8158ZM14.133 12.196V12.0793C14.133 11.6162 13.7451 11.2399 13.2684 11.2399H10.7326C10.2556 11.2399 9.86747 11.6165 9.86747 12.0793V12.2059C6.89734 12.0409 4.23471 11.4406 1.94927 10.413L1.96041 5.26222C1.96041 5.14061 2.06662 5.03785 2.19227 5.03785H21.8091C21.9346 5.03785 22.0405 5.14038 22.0405 5.26291L22.0514 10.2817C19.8208 11.3714 17.1577 12.0117 14.133 12.196Z"
          fill="#5E2CE6" fill-opacity="0.8"/>
    <path d="M0.800001 10.7024L0.800001 10.7022L0.811854 5.26107C0.811854 5.261 0.811854 5.26092 0.811854 5.26085L0.811855 5.26064L1.01185 5.26107C1.01185 4.63117 1.54125 4.11827 2.19203 4.11827L0.800001 10.7024ZM0.800001 10.7024C0.799656 10.9589 0.950436 11.1893 1.182 11.2983L1.18209 11.2984C1.39657 11.3992 1.61569 11.4933 1.83414 11.5849L0.800001 10.7024ZM8.13855 2.57983V3.91827L23.1886 5.26179C23.1884 4.51495 22.5639 3.91827 21.8089 3.91827H15.8619V2.57983C15.8619 1.59255 15.0356 0.8 14.0327 0.8H9.96776C8.96485 0.8 8.13855 1.59255 8.13855 2.57983ZM23.2 10.5607L23.1886 5.26222L23 10.5613L23.2 10.5608V10.5607ZM20.8175 18.8561V18.8569C20.817 18.8589 20.8152 18.8636 20.8091 18.8695C20.8003 18.878 20.7911 18.8804 20.7864 18.8804H3.21408C3.20653 18.8804 3.19779 18.8772 3.19059 18.8703C3.1834 18.8633 3.18269 18.8576 3.18269 18.8561V12.0979C5.14557 12.7664 7.31661 13.1753 9.66747 13.3165V13.7655C9.66747 14.3443 10.151 14.8044 10.7326 14.8044H13.2681C13.8497 14.8044 14.3328 14.3439 14.3328 13.7655V13.3086C16.7111 13.1533 18.8827 12.722 20.8175 12.02V18.8561ZM2.16041 5.26266V5.26222C2.16041 5.26084 2.16104 5.25518 2.1683 5.24816C2.17556 5.24113 2.18448 5.23785 2.19227 5.23785H21.8091C21.8168 5.23785 21.8255 5.24105 21.8325 5.24791C21.8395 5.25471 21.8405 5.26055 21.8405 5.26291V5.26335L21.8512 10.1564C19.7231 11.1747 17.1961 11.7871 14.3285 11.983C14.2785 11.45 13.8173 11.0399 13.2684 11.0399H10.7326C10.1797 11.0399 9.71571 11.4558 9.671 11.994C6.8555 11.8172 4.32889 11.2434 2.14955 10.2832L2.16041 5.26266ZM9.48687 2.57983C9.48687 2.33194 9.69702 2.11957 9.96776 2.11957H14.0327C14.2972 2.11957 14.5136 2.3381 14.5136 2.57983V3.91827H9.48687V2.57983ZM11.0158 13.4848V12.3593H12.9847V13.4848H11.0158Z"
          stroke="#5E2CE6" stroke-opacity="0.8" stroke-width="0.4"/>
</svg>

<svg width="24" height="21" fill="none" xmlns="http://www.w3.org/2000/svg"><path d="M22.989 5.262c0-.63-.53-1.144-1.18-1.144h-6.147V2.58c0-.871-.731-1.58-1.63-1.58H9.969c-.899 0-1.63.709-1.63 1.58v1.538H2.193c-.65 0-1.18.513-1.18 1.143L1 10.703a.46.46 0 0 0 .267.414c.25.118.508.227.767.335v7.404c0 .63.53 1.144 1.18 1.144h17.572c.65 0 1.18-.513 1.18-1.144v-7.515c.265-.119.526-.242.781-.372A.458.458 0 0 0 23 10.56l-.011-5.299ZM9.287 2.58a.67.67 0 0 1 .68-.66h4.066c.369 0 .68.302.68.66v1.538H9.288V2.58Zm11.73 16.276c0 .12-.107.224-.23.224H3.213a.231.231 0 0 1-.231-.224v-7.04c2.064.736 4.37 1.176 6.884 1.312v.637c0 .463.389.84.866.84h2.535a.853.853 0 0 0 .865-.84v-.644c2.547-.15 4.854-.616 6.884-1.389v7.124Zm-10.201-5.171v-1.526h2.369v1.526h-2.37Zm3.317-1.489v-.117a.853.853 0 0 0-.865-.84h-2.535a.854.854 0 0 0-.866.84v.127c-2.97-.165-5.632-.765-7.918-1.793l.011-5.15c0-.122.107-.225.232-.225H21.81a.23.23 0 0 1 .232.225l.01 5.019c-2.23 1.09-4.893 1.73-7.918 1.914Z" fill="#5E2CE6" fill-opacity=".8"/><path d="m.8 10.702.012-5.44V5.26h.2c0-.63.53-1.143 1.18-1.143L.8 10.702Zm0 0c0 .257.15.487.382.596.215.101.434.195.652.287L.8 10.702ZM8.139 2.58v1.338l15.05 1.344c0-.747-.625-1.344-1.38-1.344h-5.947V2.58c0-.987-.826-1.78-1.83-1.78H9.969c-1.003 0-1.83.793-1.83 1.78ZM23.2 10.56l-.011-5.298-.189 5.3.2-.001Zm-2.383 8.296a.028.028 0 0 1-.008.013.035.035 0 0 1-.023.011H3.214a.035.035 0 0 1-.023-.01c-.008-.007-.008-.012-.008-.014v-6.758c1.963.668 4.134 1.077 6.484 1.218v.45c0 .578.484 1.038 1.066 1.038h2.535c.582 0 1.065-.46 1.065-1.039v-.456c2.378-.156 4.55-.587 6.484-1.289v6.836ZM2.16 5.263c0-.002.001-.008.008-.015a.035.035 0 0 1 .024-.01H21.81a.03.03 0 0 1 .023.01c.008.007.008.013.008.015l.011 4.893c-2.128 1.019-4.655 1.631-7.522 1.827a1.056 1.056 0 0 0-1.06-.943h-2.536c-.553 0-1.017.416-1.062.954-2.815-.177-5.342-.75-7.521-1.71l.01-5.021ZM9.487 2.58c0-.248.21-.46.48-.46h4.066a.48.48 0 0 1 .48.46v1.338H9.488V2.58Zm1.529 10.905v-1.126h1.969v1.126h-1.97Z" stroke="#5E2CE6" stroke-opacity=".8" stroke-width=".4"/></svg>
